X:1
T:Psalm 80
T:V 9
L:1/4
M:14/4
I:linebreak $
K:F
V:1 treble nm="Pipe Organ" snm="Org."
V:1
 D2 D C D F G F E2 D3 z |$ A2 G E G F D F E2 D3 z |$ A2 c d A2 F2 G G A3 z |$ %3
w: Hy staan ver- brand op o- pe vel- de;|hy's om- ge- kap; van al u skel- de|ver- gaan die volk deur U ge- plant.|
 A2 c d A2 F2 G G A3 z |$ A2 c =B A G2 F2 E F3 z |$[M:16/4] B2 G2 A2 F D G2 E2 D4 |] %6
w: Ag, laat u ster- ke reg- ter- hand|wees met die seun wat U, o HEER,|ge- kweek, ge- sterk het tot u eer.|

